X: 10222
M: C|
L: 1/8
K: G
|:\
e2g>e d2g>d | d>cB>A B2G2 |\
e2g>e d2g>d | d>cB>A B2G2 |\
gfed fed^c | d2d>d d2z2 :|\
|:\
d/e/d/c/ B/c/B/A/ G2G2 | d=fed e4 |\
e/f/e/d/ ^c/d/c/B/ A2A2 | egfe f3e/f/ |\
g2d>d d2g2 | e2c>c c2e>f |\
ggfe dcBA | G2G>G G2z2 :|




